openmetadata-ui/src/main/resources/ui/src/assets/svg/fitview.svg

<svg width="16" height="16" viewBox="0 0 16 16" fill="none" xmlns="http://www.w3.org/2000/svg">
<g clip-path="url(#clip0_15647_20594)">
<path d="M0.939424 6.08558C0.696745 6.08558 0.5 5.88884 0.5 5.64616V3.29278C0.5 1.75286 1.75286 0.5 3.29278 0.5H5.64616C5.88884 0.5 6.08558 0.696745 6.08558 0.939424C6.08558 1.1821 5.88884 1.37885 5.64616 1.37885H3.29278C2.23745 1.37885 1.37885 2.23745 1.37885 3.29278V5.64616C1.37885 5.88884 1.1821 6.08558 0.939424 6.08558Z" fill="#7147E8" stroke="#7147E8" stroke-width="0.4"/>
<path d="M5.64616 15.5006H3.29278C1.75286 15.5006 0.5 14.2478 0.5 12.7078V10.3545C0.5 10.1118 0.696745 9.91504 0.939424 9.91504C1.1821 9.91504 1.37885 10.1118 1.37885 10.3545V12.7078C1.37885 13.7632 2.23745 14.6218 3.29278 14.6218H5.64616C5.88884 14.6218 6.08558 14.8185 6.08558 15.0612C6.08558 15.3039 5.88884 15.5006 5.64616 15.5006Z" fill="#7147E8" stroke="#7147E8" stroke-width="0.4"/>
<path d="M15.0597 6.08558C14.8171 6.08558 14.6203 5.88884 14.6203 5.64616V3.29278C14.6203 2.23745 13.7617 1.37885 12.7064 1.37885H10.353C10.1103 1.37885 9.91357 1.1821 9.91357 0.939424C9.91357 0.696745 10.1103 0.5 10.353 0.5H12.7064C14.2463 0.5 15.4992 1.75286 15.4992 3.29278V5.64616C15.4992 5.88884 15.3024 6.08558 15.0597 6.08558Z" fill="#7147E8" stroke="#7147E8" stroke-width="0.4"/>
<path d="M12.7064 15.5006H10.353C10.1103 15.5006 9.91357 15.3039 9.91357 15.0612C9.91357 14.8185 10.1103 14.6218 10.353 14.6218H12.7064C13.7617 14.6218 14.6203 13.7632 14.6203 12.7078V10.3545C14.6203 10.1118 14.8171 9.91504 15.0597 9.91504C15.3024 9.91504 15.4992 10.1118 15.4992 10.3545V12.7078C15.4992 14.2478 14.2463 15.5006 12.7064 15.5006Z" fill="#7147E8" stroke="#7147E8" stroke-width="0.4"/>
<path d="M7.99932 10.7906C6.4594 10.7906 5.20654 9.53777 5.20654 7.99785C5.20654 6.45793 6.4594 5.20508 7.99932 5.20508C9.53924 5.20508 10.7921 6.45793 10.7921 7.99785C10.7921 9.53777 9.53924 10.7906 7.99932 10.7906ZM7.99932 6.08393C6.944 6.08393 6.08539 6.94253 6.08539 7.99785C6.08539 9.05317 6.944 9.91178 7.99932 9.91178C9.05464 9.91178 9.91325 9.05317 9.91325 7.99785C9.91325 6.94253 9.05464 6.08393 7.99932 6.08393Z" fill="#7147E8" stroke="#7147E8" stroke-width="0.4"/>
</g>
<defs>
<clipPath id="clip0_15647_20594">
<rect width="16" height="16" fill="white"/>
</clipPath>
</defs>
</svg>

<svg xmlns="http://www.w3.org/2000/svg" width="16" height="16" fill="none"><g fill="#7147E8" stroke="#7147E8" stroke-width=".4" clip-path="url(#a)"><path d="M.94 6.086a.44.44 0 0 1-.44-.44V3.293A2.796 2.796 0 0 1 3.293.5h2.353a.44.44 0 0 1 0 .879H3.293a1.916 1.916 0 0 0-1.914 1.914v2.353a.44.44 0 0 1-.44.44ZM5.646 15.5H3.293A2.796 2.796 0 0 1 .5 12.709v-2.354a.44.44 0 1 1 .879 0v2.354c0 1.055.858 1.914 1.914 1.914h2.353a.44.44 0 1 1 0 .879ZM15.06 6.086a.44.44 0 0 1-.44-.44V3.293a1.916 1.916 0 0 0-1.914-1.914h-2.353a.44.44 0 1 1 0-.879h2.353A2.796 2.796 0 0 1 15.5 3.293v2.353a.44.44 0 0 1-.44.44ZM12.706 15.5h-2.353a.44.44 0 1 1 0-.878h2.353a1.916 1.916 0 0 0 1.914-1.914v-2.354a.44.44 0 0 1 .88 0v2.354a2.796 2.796 0 0 1-2.794 2.793ZM8 10.79a2.796 2.796 0 0 1-2.793-2.792 2.796 2.796 0 0 1 2.792-2.793 2.796 2.796 0 0 1 2.793 2.793A2.796 2.796 0 0 1 8 10.79Zm0-4.706a1.916 1.916 0 0 0-1.915 1.914c0 1.055.859 1.914 1.914 1.914a1.916 1.916 0 0 0 1.914-1.914A1.916 1.916 0 0 0 8 6.084Z"/></g><defs><clipPath id="a"><path fill="#fff" d="M0 0h16v16H0z"/></clipPath></defs></svg>
